svg/SJJB-OpenStreetMapIcons/shopping/gift.svg

<?xml version="1.0" encoding="UTF-8" standalone="no"?>
<!-- Created with Inkscape (http://www.inkscape.org/) -->

<svg
   xmlns:dc="http://purl.org/dc/elements/1.1/"
   xmlns:cc="http://creativecommons.org/ns#"
   xmlns:rdf="http://www.w3.org/1999/02/22-rdf-syntax-ns#"
   xmlns:svg="http://www.w3.org/2000/svg"
   xmlns="http://www.w3.org/2000/svg"
   xmlns:sodipodi="http://sodipodi.sourceforge.net/DTD/sodipodi-0.dtd"
   xmlns:inkscape="http://www.inkscape.org/namespaces/inkscape"
   version="1.0"
   width="580"
   height="580"
   id="svg2"
   sodipodi:version="0.32"
   inkscape:version="0.47 r22583"
   sodipodi:docname="shopping_gift.svg"
   inkscape:output_extension="org.inkscape.output.svg.inkscape">
  <metadata
     id="metadata2975">
    <rdf:RDF>
      <cc:Work
         rdf:about="">
        <dc:format>image/svg+xml</dc:format>
        <dc:type
           rdf:resource="http://purl.org/dc/dcmitype/StillImage" />
        <cc:license
           rdf:resource="http://web.resource.org/cc/PublicDomain" />
        <dc:language>en</dc:language>
        <dc:title></dc:title>
      </cc:Work>
    </rdf:RDF>
  </metadata>
  <sodipodi:namedview
     inkscape:window-height="1005"
     inkscape:window-width="1280"
     inkscape:pageshadow="2"
     inkscape:pageopacity="0.0"
     guidetolerance="10.0"
     gridtolerance="10.0"
     objecttolerance="10.0"
     borderopacity="1.0"
     bordercolor="#666666"
     pagecolor="#ffffff"
     id="base"
     inkscape:zoom="0.92167712"
     inkscape:cx="184.46062"
     inkscape:cy="407.56604"
     inkscape:window-x="-4"
     inkscape:window-y="-4"
     inkscape:current-layer="svg2"
     showgrid="false"
     inkscape:window-maximized="1"
     showguides="true"
     inkscape:guide-bbox="true" />
  <defs
     id="defs4">
    <inkscape:perspective
       sodipodi:type="inkscape:persp3d"
       inkscape:vp_x="0 : 290 : 1"
       inkscape:vp_y="6.1230318e-14 : 1000 : 0"
       inkscape:vp_z="580 : 290 : 1"
       inkscape:persp3d-origin="290 : 193.33333 : 1"
       id="perspective2441" />
    <inkscape:perspective
       id="perspective3452"
       inkscape:persp3d-origin="30 : 20 : 1"
       inkscape:vp_z="60 : 30 : 1"
       inkscape:vp_y="0 : 1000 : 0"
       inkscape:vp_x="0 : 30 : 1"
       sodipodi:type="inkscape:persp3d" />
    <symbol
       viewBox="244.5 110 489 219.9"
       id="symbol-university">
      <path
         id="path4460"
         d="M79,43l57,119c0,0,21-96,104-96s124,106,124,106l43-133l82-17L0,17L79,43z" />
      <path
         id="path4462"
         d="M94,176l-21,39"
         stroke-width="20"
         stroke="#000000"
         fill="none" />
      <path
         id="path4464"
         d="M300,19c0,10.5-22.6,19-50.5,19S199,29.5,199,19s22.6-19,50.5-19S300,8.5,300,19z" />
      <path
         id="path4466"
         d="M112,216l-16-38L64,88c0,0-9-8-4-35s16-24,16-24"
         stroke-width="20"
         stroke="#000000"
         ill="none" />
    </symbol>
    <inkscape:perspective
       id="perspective4471"
       inkscape:persp3d-origin="372.04724 : 350.78739 : 1"
       inkscape:vp_z="744.09448 : 526.18109 : 1"
       inkscape:vp_y="0 : 1000 : 0"
       inkscape:vp_x="0 : 526.18109 : 1"
       sodipodi:type="inkscape:persp3d" />
    <inkscape:perspective
       id="perspective4668"
       inkscape:persp3d-origin="6 : 4 : 1"
       inkscape:vp_z="12 : 6 : 1"
       inkscape:vp_y="0 : 1000 : 0"
       inkscape:vp_x="0 : 6 : 1"
       sodipodi:type="inkscape:persp3d" />
    <inkscape:perspective
       id="perspective3826"
       inkscape:persp3d-origin="0.5 : 0.33333333 : 1"
       inkscape:vp_z="1 : 0.5 : 1"
       inkscape:vp_y="0 : 1000 : 0"
       inkscape:vp_x="0 : 0.5 : 1"
       sodipodi:type="inkscape:persp3d" />
    <inkscape:perspective
       id="perspective3855"
       inkscape:persp3d-origin="0.5 : 0.33333333 : 1"
       inkscape:vp_z="1 : 0.5 : 1"
       inkscape:vp_y="0 : 1000 : 0"
       inkscape:vp_x="0 : 0.5 : 1"
       sodipodi:type="inkscape:persp3d" />
    <inkscape:perspective
       id="perspective3909"
       inkscape:persp3d-origin="0.5 : 0.33333333 : 1"
       inkscape:vp_z="1 : 0.5 : 1"
       inkscape:vp_y="0 : 1000 : 0"
       inkscape:vp_x="0 : 0.5 : 1"
       sodipodi:type="inkscape:persp3d" />
    <inkscape:perspective
       id="perspective3950"
       inkscape:persp3d-origin="0.5 : 0.33333333 : 1"
       inkscape:vp_z="1 : 0.5 : 1"
       inkscape:vp_y="0 : 1000 : 0"
       inkscape:vp_x="0 : 0.5 : 1"
       sodipodi:type="inkscape:persp3d" />
    <inkscape:perspective
       id="perspective3972"
       inkscape:persp3d-origin="0.5 : 0.33333333 : 1"
       inkscape:vp_z="1 : 0.5 : 1"
       inkscape:vp_y="0 : 1000 : 0"
       inkscape:vp_x="0 : 0.5 : 1"
       sodipodi:type="inkscape:persp3d" />
    <inkscape:perspective
       id="perspective3994"
       inkscape:persp3d-origin="0.5 : 0.33333333 : 1"
       inkscape:vp_z="1 : 0.5 : 1"
       inkscape:vp_y="0 : 1000 : 0"
       inkscape:vp_x="0 : 0.5 : 1"
       sodipodi:type="inkscape:persp3d" />
    <inkscape:perspective
       id="perspective4016"
       inkscape:persp3d-origin="0.5 : 0.33333333 : 1"
       inkscape:vp_z="1 : 0.5 : 1"
       inkscape:vp_y="0 : 1000 : 0"
       inkscape:vp_x="0 : 0.5 : 1"
       sodipodi:type="inkscape:persp3d" />
    <inkscape:perspective
       id="perspective4837"
       inkscape:persp3d-origin="0.5 : 0.33333333 : 1"
       inkscape:vp_z="1 : 0.5 : 1"
       inkscape:vp_y="0 : 1000 : 0"
       inkscape:vp_x="0 : 0.5 : 1"
       sodipodi:type="inkscape:persp3d" />
    <inkscape:perspective
       id="perspective4971"
       inkscape:persp3d-origin="0.5 : 0.33333333 : 1"
       inkscape:vp_z="1 : 0.5 : 1"
       inkscape:vp_y="0 : 1000 : 0"
       inkscape:vp_x="0 : 0.5 : 1"
       sodipodi:type="inkscape:persp3d" />
  </defs>
  <g
     id="g1327">
    <path
       d="M 66.275,1.768 C 24.94,1.768 1.704,23.139 1.704,66.804 L 1.704,516.927 C 1.704,557.771 22.599,579.156 63.896,579.156 L 515.92,579.156 C 557.227,579.156 578.149,558.841 578.149,516.927 L 578.149,66.804 C 578.149,24.203 557.227,1.768 514.628,1.768 C 514.624,1.768 66.133,1.625 66.275,1.768 z "
       style="fill:#111;stroke:#eee;stroke-width:3.40799999"
       id="path1329" />
  </g>
  <g
     id="layer3"
     inkscape:label="Layout"
     style="display:none;stroke:#757575;stroke-opacity:1"
     transform="matrix(48.14969,0,0,48.14969,-536.27327,-33.306752)">
    <rect
       style="fill:none;stroke:#757575;stroke-width:0.10000000000000001;stroke-miterlimit:4;stroke-dasharray:none;stroke-opacity:1;display:inline"
       id="rect4134"
       width="10"
       height="10"
       x="1"
       y="1" />
    <rect
       style="fill:none;stroke:#757575;stroke-width:0.10000000000000001;stroke-miterlimit:4;stroke-dasharray:none;stroke-opacity:1;display:inline"
       id="rect4136"
       width="8"
       height="8"
       x="2"
       y="2" />
  </g>
  <path
     style="fill:#ffffff;fill-opacity:1;fill-rule:evenodd;stroke:#ffffff;stroke-width:18.03055191;stroke-linecap:round;stroke-linejoin:round;stroke-miterlimit:4;stroke-dasharray:none;stroke-opacity:1"
     d="M 27.242741,-248.97792 L 39.548641,-228.79084 L 152.86371,-184.08575 L 151.87803,-241.06807 L 40.287901,-263.53323 L 27.242741,-248.97792 z"
     id="path3289"
     sodipodi:nodetypes="cccccc" />
  <g
     id="g3338"
     transform="matrix(1.3973279,-0.2437849,0.2437849,1.3973279,-185.07402,-56.183307)" />
  <g
     id="g16695"
     transform="matrix(1.304394,0,0,1.304394,-86.584517,-49.272085)">
    <path
       sodipodi:nodetypes="cscssscccccccccccccccccc"
       id="path16658"
       d="M 328.3125,213.28125 C 328.25801,213.35216 328.21122,213.42941 328.15625,213.5 C 327.0429,214.92965 325.8415,216.27877 324.53125,217.5625 C 323.21858,219.02609 321.81755,220.37144 320.34375,221.59375 C 318.86995,222.81606 317.32786,223.92 315.71875,224.90625 C 314.10964,225.8925 312.43735,226.74459 310.71875,227.5 C 309.75219,227.92485 308.74482,228.24063 307.75,228.59375 L 307.75,300.40625 L 453.53125,300.40625 L 453.53125,226.3125 C 453.53125,219.09223 447.72027,213.28125 440.5,213.28125 L 328.3125,213.28125 z M 453.53125,300.40625 L 453.53125,341.65625 L 453.53125,300.40625 z M 453.53125,341.65625 L 307.75,341.65625 L 307.75,425.59375 L 440.5,425.59375 C 447.72027,425.59375 453.53125,419.78277 453.53125,412.5625 L 453.53125,341.65625 z M 307.75,341.65625 L 307.75,300.40625 L 307.75,341.65625 z"
       style="fill:#ffffff;fill-opacity:1;stroke:#ffffff;stroke-width:5.0999999;stroke-linecap:round;stroke-linejoin:round;stroke-miterlimit:4;stroke-opacity:1;stroke-dasharray:none;stroke-dashoffset:0" />
    <path
       sodipodi:nodetypes="cccccsssscccccccccccccc"
       id="path16654"
       d="M 133.46875,213.28125 C 126.24848,213.28125 120.4375,219.09223 120.4375,226.3125 L 120.4375,300.40625 L 271.625,300.40625 L 271.625,227.34375 C 269.98464,226.66471 268.36752,225.90631 266.8125,225.0625 C 265.14724,224.15888 263.54242,223.18129 262,222.09375 C 260.45758,221.00621 258.95628,219.79749 257.5625,218.53125 C 256.16872,217.26501 254.87557,215.93972 253.65625,214.5 C 253.33138,214.11641 253.06132,213.67692 252.75,213.28125 L 133.46875,213.28125 z M 271.625,300.40625 L 271.625,341.65625 L 271.625,300.40625 z M 271.625,341.65625 L 120.4375,341.65625 L 120.4375,412.5625 C 120.4375,419.78277 126.24848,425.59375 133.46875,425.59375 L 271.625,425.59375 L 271.625,341.65625 z M 120.4375,341.65625 L 120.4375,300.40625 L 120.4375,341.65625 z"
       style="fill:#ffffff;fill-opacity:1;stroke:#ffffff;stroke-width:5.0999999;stroke-linecap:round;stroke-linejoin:round;stroke-miterlimit:4;stroke-opacity:1;stroke-dasharray:none;stroke-dashoffset:0" />
    <path
       transform="matrix(0.99463442,0,0,0.99463442,26.107939,28.10785)"
       d="M 294.02921,152.51842 C 294.02921,168.09806 281.39941,180.72786 265.81976,180.72786 C 250.24012,180.72786 237.61032,168.09806 237.61032,152.51842 C 237.61032,136.93877 250.24012,124.30897 265.81976,124.30897 C 281.39941,124.30897 294.02921,136.93877 294.02921,152.51842 z"
       sodipodi:ry="28.209444"
       sodipodi:rx="28.209444"
       sodipodi:cy="152.51842"
       sodipodi:cx="265.81976"
       id="path16082"
       style="fill:#ffffff;fill-opacity:1;stroke:#ffffff;stroke-width:5.0999999;stroke-linecap:round;stroke-linejoin:round;stroke-miterlimit:4;stroke-opacity:1;stroke-dasharray:none;stroke-dashoffset:0"
       sodipodi:type="arc" />
    <g
       transform="matrix(0.84551507,0,0,0.84551507,96.720584,80.35071)"
       id="g16617">
      <path
         style="fill:#ffffff;stroke:#000000;stroke-width:1.51656675px;stroke-linecap:butt;stroke-linejoin:miter;stroke-opacity:1"
         d="M 424.25,28.15625 C 389.92476,27.859492 307.88305,58.981161 279.13117,91.050027 C 286.17424,94.82311 297.66375,97.037981 316.65625,95.59375 C 354.11192,71.362791 407.64907,50.872843 441.0625,55.125 C 449.03322,45.345105 441.5408,34.874381 436.65625,31.28125 C 434.33814,29.208651 430.03901,28.206299 424.25,28.15625 z"
         id="path16086"
         sodipodi:nodetypes="cccccc" />
      <path
         style="fill:#ffffff;stroke:none"
         d="M 281.5421,135.40077 C 278.66821,137.45355 413.65906,132.26382 450.606,89.888844 C 475.50068,61.336792 429.23104,19.850506 443.35592,34.504266 C 481.72319,74.308126 307.05212,110.55798 279.89666,94.264713 C 288.61387,107.97673 288.16897,121.68875 281.5421,135.40077 z"
         id="path16105"
         sodipodi:nodetypes="csscc" />
    </g>
    <g
       id="g16621"
       transform="matrix(-0.84551507,0,0,0.84551507,486.43471,79.098119)">
      <path
         sodipodi:nodetypes="cccccc"
         id="path16623"
         d="M 424.25,28.15625 C 389.92476,27.859492 307.88305,58.981161 279.13117,91.050027 C 286.17424,94.82311 297.66375,97.037981 316.65625,95.59375 C 354.11192,71.362791 407.64907,50.872843 441.0625,55.125 C 449.03322,45.345105 441.5408,34.874381 436.65625,31.28125 C 434.33814,29.208651 430.03901,28.206299 424.25,28.15625 z"
         style="fill:#ffffff;stroke:#000000;stroke-width:1.51656675px;stroke-linecap:butt;stroke-linejoin:miter;stroke-opacity:1" />
      <path
         sodipodi:nodetypes="csscc"
         id="path16625"
         d="M 281.5421,135.40077 C 278.66821,137.45355 413.65906,132.26382 450.606,89.888844 C 475.50068,61.336792 429.23104,19.850506 443.35592,34.504266 C 481.72319,74.308126 307.05212,110.55798 279.89666,94.264713 C 288.61387,107.97673 288.16897,121.68875 281.5421,135.40077 z"
         style="fill:#ffffff;stroke:none" />
    </g>
    <path
       id="path16691"
       d="M 250.90131,425.66178 L 329.01978,425.66178"
       style="opacity:0.98999999;fill:none;stroke:#ffffff;stroke-width:5.0999999;stroke-linecap:butt;stroke-linejoin:miter;stroke-miterlimit:4;stroke-opacity:1;stroke-dasharray:none" />
  </g>
</svg>

<svg xmlns="http://www.w3.org/2000/svg" viewBox="0 0 580 580" xmlns:xlink="http://www.w3.org/1999/xlink"><path d="m66.28 1.768c-41.34 0-64.57 21.371-64.57 65.04v450.12c0 40.844 20.895 62.23 62.19 62.23h452.02c41.31 0 62.23-20.315 62.23-62.23v-450.12c0-42.601-20.922-65.04-63.52-65.04-.004 0-448.5-.143-448.35 0z" fill="#111" stroke="#eee" stroke-width="3.408"/><g transform="matrix(1.30439 0 0 1.30439-86.58-49.27)"><g fill="#fff" stroke="#fff" stroke-linejoin="round" stroke-linecap="round" stroke-width="5.1"><path d="m328.31 213.28c-.054.071-.101.148-.156.219-1.113 1.43-2.315 2.779-3.625 4.063-1.313 1.464-2.714 2.809-4.188 4.03-1.474 1.222-3.02 2.326-4.625 3.313-1.609.986-3.281 1.838-5 2.594-.967.425-1.974.741-2.969 1.094v71.813h145.78v-74.09c0-7.22-5.811-13.03-13.03-13.03h-112.19zm125.22 87.12v41.25-41.25zm0 41.25h-145.78v83.938h132.75c7.22 0 13.03-5.811 13.03-13.03v-70.906zm-145.78 0v-41.25 41.25z"/><path d="m133.47 213.28c-7.22 0-13.03 5.811-13.03 13.03v74.09h151.19v-73.06c-1.64-.679-3.257-1.437-4.813-2.281-1.665-.904-3.27-1.881-4.813-2.969-1.542-1.088-3.044-2.296-4.438-3.563-1.394-1.266-2.687-2.592-3.906-4.03-.325-.384-.595-.823-.906-1.219h-119.28zm138.16 87.12v41.25-41.25zm0 41.25h-151.19v70.906c0 7.22 5.811 13.03 13.03 13.03h138.16v-83.938zm-151.19 0v-41.25 41.25z"/><path transform="matrix(.99463 0 0 .99463 26.11 28.11)" d="m294.03 152.52c0 15.58-12.63 28.21-28.21 28.21-15.58 0-28.21-12.63-28.21-28.21 0-15.58 12.63-28.21 28.21-28.21 15.58 0 28.21 12.63 28.21 28.21z"/></g><g transform="matrix(.84552 0 0 .84552 96.72 80.35)"><path d="m424.25 28.16c-34.33-.297-116.37 30.825-145.12 62.894 7.04 3.773 18.533 5.988 37.525 4.544 37.456-24.23 90.993-44.721 124.41-40.469 7.971-9.78.478-20.251-4.406-23.844-2.318-2.073-6.617-3.075-12.406-3.125z" fill="#fff" stroke="#000" stroke-width="1.517" id="0"/><path d="m281.54 135.4c-2.874 2.053 132.12-3.137 169.06-45.512 24.895-28.552-21.375-70.04-7.25-55.38 38.37 39.804-136.3 76.05-163.46 59.76 8.717 13.712 8.272 27.424 1.645 41.14" fill="#fff" id="1"/></g><g transform="matrix(-.84552 0 0 .84552 486.43 79.1)"><use xlink:href="#0"/><use xlink:href="#1"/></g><path d="m250.9 425.66h78.12" opacity=".99" fill="none" stroke="#fff" stroke-width="5.1"/></g></svg>
